icons/svg/road_shields/h_us_connector_icon_shield.svg

<?xml version="1.0" encoding="UTF-8" standalone="no"?>
<!-- Generator: Adobe Illustrator 16.0.4, SVG Export Plug-In . SVG Version: 6.00 Build 0)  -->

<svg
   xmlns:dc="http://purl.org/dc/elements/1.1/"
   xmlns:cc="http://creativecommons.org/ns#"
   xmlns:rdf="http://www.w3.org/1999/02/22-rdf-syntax-ns#"
   xmlns:svg="http://www.w3.org/2000/svg"
   xmlns="http://www.w3.org/2000/svg"
   xmlns:sodipodi="http://sodipodi.sourceforge.net/DTD/sodipodi-0.dtd"
   xmlns:inkscape="http://www.inkscape.org/namespaces/inkscape"
   version="1.1"
   id="Слой_1"
   x="0px"
   y="0px"
   width="25"
   height="41"
   viewBox="0 0 25 41"
   enable-background="new 0 0 17.143 17.17"
   xml:space="preserve"
   inkscape:version="0.91 r"
   sodipodi:docname="h_us_connector_icon_shield.svg"><metadata
     id="metadata13"><rdf:RDF><cc:Work
         rdf:about=""><dc:format>image/svg+xml</dc:format><dc:type
           rdf:resource="http://purl.org/dc/dcmitype/StillImage" /><dc:title /></cc:Work></rdf:RDF></metadata><defs
     id="defs11" /><sodipodi:namedview
     pagecolor="#ffffff"
     bordercolor="#666666"
     borderopacity="1"
     objecttolerance="10"
     gridtolerance="10"
     guidetolerance="10"
     inkscape:pageopacity="0"
     inkscape:pageshadow="2"
     inkscape:window-width="1920"
     inkscape:window-height="1004"
     id="namedview9"
     showgrid="false"
     inkscape:zoom="9.7191148"
     inkscape:cx="-0.57286014"
     inkscape:cy="30.009141"
     inkscape:window-x="1680"
     inkscape:window-y="0"
     inkscape:window-maximized="1"
     inkscape:current-layer="Слой_1"
     showguides="false" /><rect
     style="color:#000000;clip-rule:evenodd;display:inline;overflow:visible;visibility:visible;opacity:1;isolation:auto;mix-blend-mode:normal;color-interpolation:sRGB;color-interpolation-filters:linearRGB;solid-color:#000000;solid-opacity:1;fill:#ffffff;fill-opacity:1;fill-rule:evenodd;stroke:#515151;stroke-width:1.08273661;stroke-linecap:butt;stroke-linejoin:miter;stroke-miterlimit:4;stroke-dasharray:none;stroke-dashoffset:0;stroke-opacity:1;marker:none;color-rendering:auto;image-rendering:auto;shape-rendering:auto;text-rendering:auto;enable-background:accumulate"
     id="rect4135"
     width="23.91383"
     height="7.0026789"
     x="0.5612734"
     y="0.56049848"
     ry="0" /><path
     inkscape:connector-curvature="0"
     id="path4148"
     style="font-style:normal;font-variant:normal;font-weight:bold;font-stretch:normal;font-size:medium;line-height:125%;font-family:Sans;-inkscape-font-specification:'Sans Bold';letter-spacing:0px;word-spacing:0px;fill:#515151;fill-opacity:1;stroke:none;stroke-width:1px;stroke-linecap:butt;stroke-linejoin:miter;stroke-opacity:1"
     d="m 3.5721362,5.6963908 q -0.1636841,0.1342773 -0.3412659,0.2026367 -0.1775818,0.068359 -0.3706055,0.068359 -0.5759828,0 -0.9126161,-0.5078125 -0.3366334,-0.5102539 -0.3366334,-1.381836 0,-0.8740234 0.3366334,-1.3818359 0.3366333,-0.5102539 0.9126161,-0.5102539 0.1930237,0 0.3706055,0.068359 0.1775818,0.068359 0.3412659,0.2026367 l 0,0.7543945 Q 3.406908,3.0328165 3.2463122,2.9498087 3.0857165,2.8668009 2.9081347,2.8668009 q -0.3181031,0 -0.5003175,0.3222656 -0.1822144,0.3222657 -0.1822144,0.8886719 0,0.5639649 0.1822144,0.8862305 0.1822144,0.3222656 0.5003175,0.3222656 0.1775818,0 0.3381775,-0.083008 0.1605958,-0.083008 0.325824,-0.2612305 l 0,0.7543946 z" /><path
     inkscape:connector-curvature="0"
     id="path4150"
     style="font-style:normal;font-variant:normal;font-weight:bold;font-stretch:normal;font-size:medium;line-height:125%;font-family:Sans;-inkscape-font-specification:'Sans Bold';letter-spacing:0px;word-spacing:0px;fill:#515151;fill-opacity:1;stroke:none;stroke-width:1px;stroke-linecap:butt;stroke-linejoin:miter;stroke-opacity:1"
     d="m 5.1194143,2.8668009 q -0.2717774,0 -0.4215638,0.3173828 -0.1497864,0.3173828 -0.1497864,0.8935547 0,0.5737305 0.1497864,0.8911133 0.1497864,0.3173828 0.4215638,0.3173828 0.2733216,0 0.423108,-0.3173828 0.1497864,-0.3173828 0.1497864,-0.8911133 0,-0.5761719 -0.1497864,-0.8935547 Q 5.3927359,2.8668009 5.1194143,2.8668009 Z m 0,-0.6811523 q 0.5559083,0 0.870923,0.5029297 0.3150147,0.5029297 0.3150147,1.3891601 0,0.8837891 -0.3150147,1.3867188 -0.3150147,0.5029297 -0.870923,0.5029297 -0.5543641,0 -0.870923,-0.5029297 -0.3150147,-0.5029297 -0.3150147,-1.3867188 0,-0.8862304 0.3150147,-1.3891601 0.3165589,-0.5029297 0.870923,-0.5029297 z" /><path
     inkscape:connector-curvature="0"
     id="path4152"
     style="font-style:normal;font-variant:normal;font-weight:bold;font-stretch:normal;font-size:medium;line-height:125%;font-family:Sans;-inkscape-font-specification:'Sans Bold';letter-spacing:0px;word-spacing:0px;fill:#515151;fill-opacity:1;stroke:none;stroke-width:1px;stroke-linecap:butt;stroke-linejoin:miter;stroke-opacity:1"
     d="m 6.753167,2.2515665 0.6640017,0 0.8384946,2.5 0,-2.5 0.5636297,0 0,3.6450196 -0.6640017,0 -0.8384953,-2.5 0,2.5 -0.563629,0 0,-3.6450196 z" /><path
     inkscape:connector-curvature="0"
     id="path4154"
     style="font-style:normal;font-variant:normal;font-weight:bold;font-stretch:normal;font-size:medium;line-height:125%;font-family:Sans;-inkscape-font-specification:'Sans Bold';letter-spacing:0px;word-spacing:0px;fill:#515151;fill-opacity:1;stroke:none;stroke-width:1px;stroke-linecap:butt;stroke-linejoin:miter;stroke-opacity:1"
     d="m 9.4029964,2.2515665 0.6640016,0 0.838495,2.5 0,-2.5 0.563629,0 0,3.6450196 -0.664001,0 -0.8384949,-2.5 0,2.5 -0.5636297,0 0,-3.6450196 z" /><path
     inkscape:connector-curvature="0"
     id="path4156"
     style="font-style:normal;font-variant:normal;font-weight:bold;font-stretch:normal;font-size:medium;line-height:125%;font-family:Sans;-inkscape-font-specification:'Sans Bold';letter-spacing:0px;word-spacing:0px;fill:#515151;fill-opacity:1;stroke:none;stroke-width:1px;stroke-linecap:butt;stroke-linejoin:miter;stroke-opacity:1"
     d="m 12.052826,2.2515665 1.604413,0 0,0.7104493 -1.0099,0 0,0.6787109 0.949677,0 0,0.7104492 -0.949677,0 0,0.834961 1.043872,0 0,0.7104492 -1.638385,0 0,-3.6450196 z" /><path
     inkscape:connector-curvature="0"
     id="path4158"
     style="font-style:normal;font-variant:normal;font-weight:bold;font-stretch:normal;font-size:medium;line-height:125%;font-family:Sans;-inkscape-font-specification:'Sans Bold';letter-spacing:0px;word-spacing:0px;fill:#515151;fill-opacity:1;stroke:none;stroke-width:1px;stroke-linecap:butt;stroke-linejoin:miter;stroke-opacity:1"
     d="m 16.043012,5.6963908 q -0.163684,0.1342773 -0.341266,0.2026367 -0.177581,0.068359 -0.370605,0.068359 -0.575983,0 -0.912616,-0.5078125 -0.336634,-0.5102539 -0.336634,-1.381836 0,-0.8740234 0.336634,-1.3818359 0.336633,-0.5102539 0.912616,-0.5102539 0.193024,0 0.370605,0.068359 0.177582,0.068359 0.341266,0.2026367 l 0,0.7543945 Q 15.877784,3.0328165 15.717188,2.9498087 15.556592,2.8668009 15.37901,2.8668009 q -0.318102,0 -0.500317,0.3222656 -0.182214,0.3222657 -0.182214,0.8886719 0,0.5639649 0.182214,0.8862305 0.182215,0.3222656 0.500317,0.3222656 0.177582,0 0.338178,-0.083008 0.160596,-0.083008 0.325824,-0.2612305 l 0,0.7543946 z" /><path
     inkscape:connector-curvature="0"
     id="path4160"
     style="font-style:normal;font-variant:normal;font-weight:bold;font-stretch:normal;font-size:medium;line-height:125%;font-family:Sans;-inkscape-font-specification:'Sans Bold';letter-spacing:0px;word-spacing:0px;fill:#515151;fill-opacity:1;stroke:none;stroke-width:1px;stroke-linecap:butt;stroke-linejoin:miter;stroke-opacity:1"
     d="m 16.262287,2.2515665 2.124805,0 0,0.7104493 -0.764374,0 0,2.9345703 -0.594513,0 0,-2.9345703 -0.765918,0 0,-0.7104493 z" /><path
     inkscape:connector-curvature="0"
     id="path4162"
     style="font-style:normal;font-variant:normal;font-weight:bold;font-stretch:normal;font-size:medium;line-height:125%;font-family:Sans;-inkscape-font-specification:'Sans Bold';letter-spacing:0px;word-spacing:0px;fill:#515151;fill-opacity:1;stroke:none;stroke-width:1px;stroke-linecap:butt;stroke-linejoin:miter;stroke-opacity:1"
     d="m 19.745979,2.8668009 q -0.271777,0 -0.421564,0.3173828 -0.149786,0.3173828 -0.149786,0.8935547 0,0.5737305 0.149786,0.8911133 0.149787,0.3173828 0.421564,0.3173828 0.273322,0 0.423108,-0.3173828 0.149786,-0.3173828 0.149786,-0.8911133 0,-0.5761719 -0.149786,-0.8935547 -0.149786,-0.3173828 -0.423108,-0.3173828 z m 0,-0.6811523 q 0.555909,0 0.870923,0.5029297 0.315015,0.5029297 0.315015,1.3891601 0,0.8837891 -0.315015,1.3867188 -0.315014,0.5029297 -0.870923,0.5029297 -0.554364,0 -0.870923,-0.5029297 -0.315015,-0.5029297 -0.315015,-1.3867188 0,-0.8862304 0.315015,-1.3891601 0.316559,-0.5029297 0.870923,-0.5029297 z" /><path
     inkscape:connector-curvature="0"
     id="path4164"
     style="font-style:normal;font-variant:normal;font-weight:bold;font-stretch:normal;font-size:medium;line-height:125%;font-family:Sans;-inkscape-font-specification:'Sans Bold';letter-spacing:0px;word-spacing:0px;fill:#515151;fill-opacity:1;stroke:none;stroke-width:1px;stroke-linecap:butt;stroke-linejoin:miter;stroke-opacity:1"
     d="m 22.224403,3.8677775 q 0.186847,0 0.267146,-0.1098633 0.08184,-0.1098633 0.08184,-0.3613281 0,-0.2490235 -0.08184,-0.3564453 -0.0803,-0.1074219 -0.267146,-0.1074219 l -0.250158,0 0,0.9350586 0.250158,0 z m -0.250158,0.649414 0,1.3793946 -0.594513,0 0,-3.6450196 0.907983,0 q 0.455536,0 0.66709,0.2416993 0.213099,0.2416992 0.213099,0.7641601 0,0.3613281 -0.111182,0.5932617 -0.109638,0.2319336 -0.332001,0.3417969 0.121991,0.043945 0.217731,0.2001953 0.09728,0.1538086 0.196112,0.46875 l 0.322736,1.0351563 -0.633118,0 -0.281043,-0.9057617 Q 22.462209,4.7173869 22.37419,4.6172892 22.287715,4.5171915 22.142562,4.5171915 l -0.168317,0 z" /></svg>

<svg width="25" height="41" viewBox="0 0 25 41" fill="none" xmlns="http://www.w3.org/2000/svg">
<g clip-path="url(#clip0)">
<path d="M24.4751 0.560486H0.561272V7.56316H24.4751V0.560486Z" fill="white" stroke="#515151" stroke-width="1.08274"/>
<path d="M3.57214 5.69641C3.46301 5.78593 3.34926 5.85348 3.23087 5.89905C3.11248 5.94462 2.98895 5.96741 2.86026 5.96741C2.47628 5.96741 2.17207 5.79814 1.94765 5.45959C1.72323 5.11943 1.61102 4.65881 1.61102 4.07776C1.61102 3.49508 1.72323 3.03446 1.94765 2.69592C2.17207 2.35575 2.47628 2.18567 2.86026 2.18567C2.98895 2.18567 3.11248 2.20846 3.23087 2.25403C3.34926 2.2996 3.46301 2.36715 3.57214 2.45666V3.21106C3.46198 3.09224 3.35338 3.00517 3.24631 2.94983C3.13925 2.89449 3.02652 2.86682 2.90813 2.86682C2.69607 2.86682 2.52929 2.97424 2.40782 3.18909C2.28634 3.40393 2.2256 3.70015 2.2256 4.07776C2.2256 4.45374 2.28634 4.74915 2.40782 4.96399C2.52929 5.17883 2.69607 5.28626 2.90813 5.28626C3.02652 5.28626 3.13925 5.25859 3.24631 5.20325C3.35338 5.14791 3.46198 5.06083 3.57214 4.94202V5.69641V5.69641Z" fill="#515151"/>
<path d="M5.11941 2.86682C4.93823 2.86682 4.79771 2.97262 4.69785 3.1842C4.59799 3.39579 4.54806 3.69364 4.54806 4.07776C4.54806 4.46025 4.59799 4.75728 4.69785 4.96887C4.79771 5.18046 4.93823 5.28625 5.11941 5.28625C5.30163 5.28625 5.44266 5.18046 5.54252 4.96887C5.64238 4.75728 5.69231 4.46025 5.69231 4.07776C5.69231 3.69364 5.64238 3.39579 5.54252 3.1842C5.44266 2.97262 5.30163 2.86682 5.11941 2.86682ZM5.11941 2.18567C5.49002 2.18567 5.78033 2.35331 5.99034 2.6886C6.20035 3.02389 6.30535 3.48694 6.30535 4.07776C6.30535 4.66695 6.20035 5.12919 5.99034 5.46448C5.78033 5.79976 5.49002 5.96741 5.11941 5.96741C4.74984 5.96741 4.45953 5.79976 4.24849 5.46448C4.03848 5.12919 3.93348 4.66695 3.93348 4.07776C3.93348 3.48694 4.03848 3.02389 4.24849 2.6886C4.45953 2.35331 4.74984 2.18567 5.11941 2.18567V2.18567Z" fill="#515151"/>
<path d="M6.75317 2.25159H7.41717L8.25566 4.75159V2.25159H8.81929V5.89661H8.15529L7.31679 3.39661V5.89661H6.75317V2.25159V2.25159Z" fill="#515151"/>
<path d="M9.403 2.25159H10.067L10.9055 4.75159V2.25159H11.4691V5.89661H10.8051L9.96663 3.39661V5.89661H9.403V2.25159V2.25159Z" fill="#515151"/>
<path d="M12.0528 2.25159H13.6572V2.96204H12.6473V3.64075H13.597V4.3512H12.6473V5.18616H13.6912V5.89661H12.0528V2.25159V2.25159Z" fill="#515151"/>
<path d="M16.043 5.69641C15.9339 5.78593 15.8201 5.85348 15.7017 5.89905C15.5834 5.94462 15.4598 5.96741 15.3311 5.96741C14.9472 5.96741 14.6429 5.79814 14.4185 5.45959C14.1941 5.11943 14.0819 4.65881 14.0819 4.07776C14.0819 3.49508 14.1941 3.03446 14.4185 2.69592C14.6429 2.35575 14.9472 2.18567 15.3311 2.18567C15.4598 2.18567 15.5834 2.20846 15.7017 2.25403C15.8201 2.2996 15.9339 2.36715 16.043 2.45666V3.21106C15.9329 3.09224 15.8243 3.00517 15.7172 2.94983C15.6101 2.89449 15.4974 2.86682 15.379 2.86682C15.1669 2.86682 15.0002 2.97424 14.8787 3.18909C14.7572 3.40393 14.6965 3.70015 14.6965 4.07776C14.6965 4.45374 14.7572 4.74915 14.8787 4.96399C15.0002 5.17883 15.1669 5.28626 15.379 5.28626C15.4974 5.28626 15.6101 5.25859 15.7172 5.20325C15.8243 5.14791 15.9329 5.06083 16.043 4.94202V5.69641V5.69641Z" fill="#515151"/>
<path d="M16.2623 2.25159H18.3871V2.96204H17.6227V5.89661H17.0282V2.96204H16.2623V2.25159V2.25159Z" fill="#515151"/>
<path d="M19.746 2.86682C19.5648 2.86682 19.4243 2.97262 19.3244 3.1842C19.2246 3.39579 19.1746 3.69364 19.1746 4.07776C19.1746 4.46025 19.2246 4.75728 19.3244 4.96887C19.4243 5.18046 19.5648 5.28625 19.746 5.28625C19.9282 5.28625 20.0692 5.18046 20.1691 4.96887C20.2689 4.75728 20.3189 4.46025 20.3189 4.07776C20.3189 3.69364 20.2689 3.39579 20.1691 3.1842C20.0692 2.97262 19.9282 2.86682 19.746 2.86682V2.86682ZM19.746 2.18567C20.1166 2.18567 20.4069 2.35331 20.6169 2.6886C20.8269 3.02389 20.9319 3.48694 20.9319 4.07776C20.9319 4.66695 20.8269 5.12919 20.6169 5.46448C20.4069 5.79976 20.1166 5.96741 19.746 5.96741C19.3764 5.96741 19.0861 5.79976 18.8751 5.46448C18.665 5.12919 18.56 4.66695 18.56 4.07776C18.56 3.48694 18.665 3.02389 18.8751 2.6886C19.0861 2.35331 19.3764 2.18567 19.746 2.18567V2.18567Z" fill="#515151"/>
<path d="M22.2244 3.8678C22.349 3.8678 22.438 3.83118 22.4915 3.75793C22.5461 3.68469 22.5734 3.56425 22.5734 3.39661C22.5734 3.23059 22.5461 3.11178 22.4915 3.04016C22.438 2.96855 22.349 2.93274 22.2244 2.93274H21.9742V3.8678H22.2244V3.8678ZM21.9742 4.51721V5.89661H21.3797V2.25159H22.2877C22.5914 2.25159 22.8138 2.33215 22.9548 2.49329C23.0969 2.65442 23.1679 2.90914 23.1679 3.25745C23.1679 3.49833 23.1308 3.69609 23.0567 3.85071C22.9836 4.00533 22.873 4.11926 22.7247 4.1925C22.806 4.2218 22.8786 4.28853 22.9424 4.3927C23.0073 4.49524 23.0727 4.65149 23.1386 4.86145L23.4613 5.89661H22.8282L22.5471 4.99084C22.4905 4.80855 22.4329 4.68404 22.3742 4.61731C22.3165 4.55058 22.2393 4.51721 22.1426 4.51721H21.9742V4.51721Z" fill="#515151"/>
</g>
<defs>
<clipPath id="clip0">
<path d="M0 0H25V41H0V0Z" fill="white"/>
</clipPath>
</defs>
</svg>
